src/lib/packages/icons/src/assets/line/Apple-fruit.svg

<svg width="24" height="24" viewBox="0 0 24 24" fill="none" xmlns="http://www.w3.org/2000/svg">
<path d="M12 7.75C15.06 7.75 16.75 6.06 16.75 3C16.75 2.59 16.41 2.25 16 2.25C12.94 2.25 11.25 3.94 11.25 7C11.25 7.41 11.59 7.75 12 7.75ZM15.2 3.79999C15.01 5.23999 14.24 6.01001 12.8 6.20001C12.99 4.76001 13.76 3.98999 15.2 3.79999ZM15.74 8.26999C14.24 7.95999 13.03 8.18999 12 8.98999C10.97 8.18999 9.77001 7.95999 8.26001 8.26999C5.71001 8.78999 4.25 10.88 4.25 14C4.25 17.49 6.73 21.75 9.63 21.75C10.57 21.75 11.05 21.55 11.4 21.4C11.63 21.3 11.75 21.25 12 21.25C12.25 21.25 12.37 21.3 12.6 21.4C12.95 21.55 13.43 21.75 14.37 21.75C17.27 21.75 19.75 17.49 19.75 14C19.75 10.88 18.29 8.78999 15.74 8.26999ZM14.37 20.25C13.73 20.25 13.48 20.14 13.18 20.02C12.9 19.9 12.55 19.75 12 19.75C11.45 19.75 11.1 19.9 10.82 20.02C10.53 20.14 10.27 20.25 9.63 20.25C7.85 20.25 5.75 16.86 5.75 14C5.75 12.32 6.24 10.22 8.56 9.73999C10.05 9.43999 10.8 9.82999 11.46 10.52C11.74 10.82 12.26 10.82 12.54 10.52C13.2 9.82999 13.94 9.42999 15.44 9.73999C17.76 10.22 18.25 12.32 18.25 14C18.25 16.86 16.15 20.25 14.37 20.25Z" fill="currentColor"/>
</svg>

<svg xmlns="http://www.w3.org/2000/svg" width="24" height="24" fill="none"><path fill="currentColor" d="M12 7.75c3.06 0 4.75-1.69 4.75-4.75 0-.41-.34-.75-.75-.75-3.06 0-4.75 1.69-4.75 4.75 0 .41.34.75.75.75Zm3.2-3.95c-.19 1.44-.96 2.21-2.4 2.4.19-1.44.96-2.21 2.4-2.4Zm.54 4.47c-1.5-.31-2.71-.08-3.74.72-1.03-.8-2.23-1.03-3.74-.72-2.55.52-4.01 2.61-4.01 5.73 0 3.49 2.48 7.75 5.38 7.75.94 0 1.42-.2 1.77-.35.23-.1.35-.15.6-.15s.37.05.6.15c.35.15.83.35 1.77.35 2.9 0 5.38-4.26 5.38-7.75 0-3.12-1.46-5.21-4.01-5.73Zm-1.37 11.98c-.64 0-.89-.11-1.19-.23-.28-.12-.63-.27-1.18-.27-.55 0-.9.15-1.18.27-.29.12-.55.23-1.19.23-1.78 0-3.88-3.39-3.88-6.25 0-1.68.49-3.78 2.81-4.26 1.49-.3 2.24.09 2.9.78.28.3.8.3 1.08 0 .66-.69 1.4-1.09 2.9-.78 2.32.48 2.81 2.58 2.81 4.26 0 2.86-2.1 6.25-3.88 6.25Z"/></svg>
